vs/src/CodeStream.VisualStudio/Resources/Assets/marker-comment-red.svg

<svg xmlns="http://www.w3.org/2000/svg" fill="#d9634f" viewBox="0 0 16 16">
    <path d="M14.5 2h-13l-.5.5v9l.5.5H4v2.5l.854.354L7.707 12H14.5l.5-.5v-9l-.5-.5zm-.5 9H7.5l-.354.146L5 13.293V11.5l-.5-.5H2V3h12v8z"/>
</svg>

<svg xmlns="http://www.w3.org/2000/svg" fill="#d9634f" viewBox="0 0 16 16">
    <path d="M14.5 2H1.5L1 2.5V11.5L1.5 12H4V14.5L4.854 14.854L7.707 12H14.5L15 11.5V2.5L14.5 2ZM14 11H7.5L7.146 11.146L5 13.293V11.5L4.5 11H2V3H14V11Z" />
</svg>
